X: 1
T:Purphy's
S:irtrad-l, 4/97, David de la Barre
M:6/8
L:1/8
C:Brian Finnegan
R:jig
D:Kathryn Tickell Band;Signs
K:D
^A|B3 BAB|dBB BAF|G2d3E|F2c3^A|
B3 BAB|dBB BAF|edc AEA|^A2B3c|
B3 BAB|dBB BAF|G2d2ef|e2c3^A|
B3 BAB|dBB eBf|BgB edB|^ABc B2:|
